X: 237
T: The Mountaineers
%R: slip-jig
Z: 2014 John Chambers <jc:trillian.mit.edu>
B: Preston "Twenty four Country Dances for the Year 1794" p.99 #1
F: http://www.vwml.org/browse/browse-collections-dance-tune-books/browse-prestons1794# 2014-8-10
M: 9/8
L: 1/8
K: D
|:\
DED DdB AFD | EFE EFA B2d |\
DED DdB AFD | EDE FDC B,2A, :|
|:\
ded ded cBA | BcB Bcd e2f |\
ded ded cBA | Bcd AGF FED :|
% - - - - - - - - - - - - - - - - - - - - - - - - -
%%begintext align
%% The 1st Gent.n set to the 2d Lady & turn the 3d .|
%% The 1st Lady do the same :|
%% Cross over 1 Cu: and turn :|.
%% Right & left at top :|:
%%endtext
% - - - - - - - - - - - - - - - - - - - - - - - - -

%%sep 1 1 500
%%sep 1 1 500
